**kern	**kern	**dynam
*part1	*part1	*part1
*staff2	*staff1	*
*I"Piano	*	*
*clefF4	*clefG2	*
*k[b-e-a-]	*k[b-e-a-]	*
=1	=1	=1
!	!LO:TX:a:i:t=suivez	!
4EE-	4.A-] 4.B-] 4.d] 4.f]	.
8BB-	.	.
4B-	4r	.
8r	8r	.
=	=	=
*^	*	*
!	!	!LO:TX:a:B:t=a Tempo	!
[2.E-	4r	4G 4e-	ppp
.	8r	8B-	.
.	4.FF^	4A-	.
.	.	8B-	.
=	=	=	=
2.E-_	4.EE-^	4G 4e-	.
.	.	8B-	.
.	4.FF^	4A-	.
.	.	8B-	.
=	=	=	=
*	*	*^	*
2.E-_	4.EE-^	4.e-	4G	.
.	.	.	8B-	.
.	4FF^	4A- 4d	4ryy	.
.	8GG^	8B- 8d-X	8ryy	.
*v	*v	*	*	*
*	*v	*v	*
=	=	=
4AA-^ 4E-]	4.A- 4.c	.
8GG^	.	.
!	!LO:TX:a:i:t=estinto	!
4FF^	4.A- 4.B- 4.dn	.
8BB-^	.	.
=	=	=
*^	*	*
[2.F [2.A-	[2.EE-^ [2.BB-	[2.B- [2.d	.
=	=	=	=
2.F] 2.A-]	2.EE-] 2.BB-]	2.B-] 2.d]	.
=	=	=	=
2.E- 2.G	2.EE-; 2.BB-	2.B-; 2.e-	.
*v	*v	*	*
==	==	==
*-	*-	*-
!!!system-decoration: {(s1,s2)}
